icon-themes/breeze_svg/cmd/sc_zoomnext.svg

<svg viewBox="0 0 16 16" xmlns="http://www.w3.org/2000/svg">/&gt;<path d="m2 2v3h1v-2h2v-1h-2zm9 0v1h2v2h1v-3h-1zm-4.0605469 3.171875-.7070312.7070312.9492187.9492188 1.171875 1.171875-1.171875 1.171875-.9492187.949219.7070312.707031.9492188-.9492188 1.8789062-1.8789062-1.8789062-1.8789062zm-4.9394531 5.828125v3h1 2v-1h-2v-2zm11 0v2h-2v1h3v-1-2z" fill="#4d4d4d"/></svg>

<svg xmlns="http://www.w3.org/2000/svg" viewBox="0 0 16 16">
     />
 <path 
     style="fill:#4d4d4d" 
     d="M 2 2 L 2 5 L 3 5 L 3 3 L 5 3 L 5 2 L 3 2 L 2 2 z M 11 2 L 11 3 L 13 3 L 13 5 L 14 5 L 14 2 L 13 2 L 11 2 z M 6.9394531 5.171875 L 6.2324219 5.8789062 L 7.1816406 6.828125 L 8.3535156 8 L 7.1816406 9.171875 L 6.2324219 10.121094 L 6.9394531 10.828125 L 7.8886719 9.8789062 L 9.7675781 8 L 7.8886719 6.1210938 L 6.9394531 5.171875 z M 2 11 L 2 14 L 3 14 L 5 14 L 5 13 L 3 13 L 3 11 L 2 11 z M 13 11 L 13 13 L 11 13 L 11 14 L 14 14 L 14 13 L 14 11 L 13 11 z "
     />
 </svg>
